X: 358
P: Longways for as many as will
M: C|
L: 1/8
K: Dm
e2 |\
f3e d2^c2 | d2(ef) (ga)(gf) | e6 e2 |\
f3e d2^c2 | d2(ef) (gf)(ed) | d6 :|\
E3E F2G2 | A2(GF) (AB)c2 | E4- E2A2 |\

